X:10
T:Rose Tree. MBe.10
S:Matthew Betham MS, Towcett Cumbria, 1815
O:England;Cumbria;Towcett
Z:VMP – Hugh Taylor, 2012
M:2/4
L:1/8
Q:1/4=100
R:.Reel
N:NB1-The 7th bar of the A has the 4 semi-quavers written as quavers
N:NB2-The 7th bar of the B has 5 semi-quavers. I have assumed that the first one is a crotchet.
K:D
f/e/|dB AG|A>BAc|d2 f/e/d/e/|fe e/g/f/e/|
dB AG|A>BAc|d2 “^qu’s in MS”f/e/d/e/|edd:|
|:g|fefg|f/g/a gf|eaag|ae ef/e/|
dB AG|A>BAc|”^NB2″d2 f/e/d/e/|fdd:|

